!! 00005] TT[TB
!! Eigene Aufnahme
!!!OTL: Qiu shou(Herbsternte)
!!!ARE: Asia, China, Shanxi Shanbei
!! Ethnic Group: Han
!! I, 52, 1)
!!!SCT: C0013
!!!YEM: Copyright 1995, estate of Helmut Schaffrath.
**kern
*ICvox
*Ivox
*M2/4
*k[f#c#g#]
*A:
{8ee
8ee
8ff#
16aa
16cc#
=1
16b
16a
4b
16aa
16ff#
=2
8ee
16ee
16cc#
16b
16cc#
16b
16e
=3
2a}
=4
{8b
8ee
8dd
16cc#
16b
=5
8a
16g#
16f#
8e
8ee
=6
8a
16g#
16f#
16e
16f#
16e
16B
=7
2e}
==
!!!AGN: Xiaodiao. Geming lishi minge
!! neues Volkslied, wird heute mit neuem Text in fast doppelter
!!    Geschwindigkeit gesungen und froehlich. Frueher traurig. Der
!!    Textdichter hat auch die Oper "Das weisshaarige Maedchen"
!!    geschrieben.- Typ: Hier macht man die Lampe an und am anderen
!!    Berg kann man das Licht sehen. Die urspruengliche Version,
!!    ein Liebeslied, das doppelt so langsam gesungen wird, ist in
!!    Cut 2 enthalten. - Saengerin: Huang Bai. +++ Singt eine weitere
!!    Verzierung in Takt 3. +++BEREITS KODIERT+++
!!    Pinyin-Text der ersten Strophe vorhanden!
!!!ONB: ESAC (Essen Associative Code) Database: CHINA
!!!AMT: simple duple
!!!AIN: vox
!!!EED: Helmut Schaffrath
!!!EEV: 1.0
*-
